X: 6719
T: Chadwick's Bog
R: reel
M: 4/4
K: Dmajor
(3ABc|dFEF DFAF|B2 AF ABde|fdAd fdfa-|agec Aceg|
fddc dAFA|G2 BG FDAF|EDCD EFGB|AFEF D2 de|
fddc dAFA|GBed cAGF|GBdB Adfd|Beed cAde|
fddc dAFA|G2 BG FDAF|EDCD EFGB|AFEF D2||

